outputs/icons/general/list_feedback_round.svg

<svg xmlns="http://www.w3.org/2000/svg" width="1200" height="1200" fill="none"><path fill="#000" d="M200 400c0-27.614 22.386-50 50-50h700c27.615 0 50 22.386 50 50s-22.385 50-50 50H250c-27.614 0-50-22.386-50-50m0 200c0 27.615 22.386 50 50 50h700c27.615 0 50-22.385 50-50s-22.385-50-50-50H250c-27.614 0-50 22.385-50 50m0 200c0 27.615 22.386 50 50 50h250c27.615 0 50-22.385 50-50s-22.385-50-50-50H250c-27.614 0-50 22.385-50 50m0 200c0 27.615 22.386 50 50 50h250c27.615 0 50-22.385 50-50s-22.385-50-50-50H250c-27.614 0-50 22.385-50 50m570.5-91.5L735.25 873c-19.45-19.585-51.11-19.64-70.625-.125-19.42 19.42-19.475 50.885-.125 70.375l70.685 71.185c19.49 19.625 51.215 19.7 70.795.16L964.44 856.48c19.635-19.59 19.65-51.39.04-71-19.595-19.595-51.365-19.595-70.96 0zM250 150c-27.614 0-50 22.386-50 50s22.386 50 50 50h700c27.615 0 50-22.386 50-50s-22.385-50-50-50z"/></svg>

<svg width="1200" height="1200" viewBox="0 0 1200 1200" fill="none" xmlns="http://www.w3.org/2000/svg"><path d="M200 400C200 372.386 222.386 350 250 350H950C977.615 350 1000 372.386 1000 400C1000 427.614 977.615 450 950 450H250C222.386 450 200 427.614 200 400ZM200 600C200 627.615 222.386 650 250 650H950C977.615 650 1000 627.615 1000 600C1000 572.385 977.615 550 950 550H250C222.386 550 200 572.385 200 600ZM200 800C200 827.615 222.386 850 250 850H500C527.615 850 550 827.615 550 800C550 772.385 527.615 750 500 750H250C222.386 750 200 772.385 200 800ZM200 1000C200 1027.615 222.386 1050 250 1050H500C527.615 1050 550 1027.615 550 1000C550 972.385 527.615 950 500 950H250C222.386 950 200 972.385 200 1000ZM770.5 908.5L735.25 873C715.8 853.415 684.14 853.36 664.625 872.875C645.205 892.295 645.15 923.76 664.5 943.25L735.185 1014.435C754.675 1034.06 786.4 1034.135 805.98 1014.595L964.44 856.48C984.075 836.89 984.09 805.09 964.48 785.48C944.885 765.885 913.115 765.885 893.52 785.48L770.5 908.5ZM250 150C222.386 150 200 172.386 200 200C200 227.614 222.386 250 250 250H950C977.615 250 1000 227.614 1000 200C1000 172.386 977.615 150 950 150H250Z" fill="black"/></svg>
